X:1
T:How Can I Let Thee Go?
T:How Can I Let Thee Go?
T:A. G. Little, 1878
T:Eben Eugene Rexford, 1878
T:Public Domain Courtesy of the Cyber Hymnal™
T:Public Domain Courtesy of the Cyber Hymnal™
C:A. G. Little, 1878
Z:Public Domain
Z:Courtesy of the Cyber Hymnal™
%%score ( 1 2 ) ( 3 4 )
L:1/8
Q:1/4=107
M:4/4
K:D
V:1 treble 
V:2 treble 
V:3 bass 
V:4 bass 
V:1
 ([DF][EG]) | [FA]2 [FA]2 ([FA][EG]) [DF]2 | [DB]2 [GB]2 (dc) [GB]2 | [FA]2 [GB]2 [FA]2 [DF]2 | %4
w: 1.~Dear *|Lord, I need * Thee|all the time, * The|road is rough and|
w: 2.~Temp- *|ta- tions meet * me|ev- ery- where, * To|lure my heart from|
w: 3.~Dear *|Lord, I trem- * ble|when from me * Thy|gen- tle face is|
 [CE]6 ([DF][EG]) | [FA]2 [FA]2 ([FA][EG]) [DF]2 | [DB]2 [Dc]2 [Dd]2 [GB]2 | %7
w: steep, And *|on- ly as * I|trust to Thee, The|
w: Thee; I *|can- not fight * them|all al- one— Dear|
w: hid, And *|fal- ter in * the|way to Heav’n, Earth’s|
 [FA]2 [DF]2 [DF]2 [CE]2 | D6 [DF]2 | [CE]2 [CE]2 ([EG][DF]) [CE]2 | [DF]2 [EG]2 [FA]2 [FA]2 | %11
w: way to Heav’n I|keep. How|hea- vy are * the|ma- ny sins Which|
w: Lord, my help- er|be. This|heart of mine * so|stained with sin, Oh,|
w: drear- y storms a-|mid. But|when I touch * Thy|lov- ing hand, What|
 [GB]2 [Gd]2 [^Gc]2 [GB]2 | A6 ([DF][EG]) | [FA]2 [FA]2 [Fd]2 [FA]2 | [Ac]2 [GB]2 [GB]2 [GB]2 | %15
w: grieve Thy kind heart|so! Dear *|Lord, un- til Thy|bless- ing comes, How|
w: wash it white like|snow, Un- *|til the bless- ing|comes, dear Lord, How|
w: rest and peace I|know! Dear *|Lord, I need Thee|all the time, And|
 [FA]2 [DF]2 [DF]2 [CE]2 | D6 ||"^Refrain" [DF]2 | [CE]2 ([CE][DF]) [EG]2 [CE]2 | %19
w: can I let Thee|go?|||
w: can I let Thee|go?|Dear|Lord, I * need Thee|
w: cann- ot let Thee|go.|||
 [DF]2 [GB]2 [FA]2 [FA]2 | [Fd]2 [FA]2 [DF]2 D2 | [CE]6 (AG) | [DF]2 ([DF][EG]) [FA]2 [Fd]2 | %23
w: ||||
w: more and more, As|earth- ly trou- bles|come; Oh, *|let me * keep my|
w: ||||
 [GB]2 [Gd]2 [FA]2 [DB]2 | [DA]2 [DF]2 [DF]2 [CE]2 | D6 |] %26
w: |||
w: hand in Thine, Till|safe with Thee at|home.|
w: |||
V:2
 x2 | x8 | x4 G2 x2 | x8 | x8 | x8 | x8 | x8 | D6 x2 | x8 | x8 | x8 | A6 x2 | x8 | x8 | x8 | D6 || %17
 x2 | x8 | x8 | x6 D2 | x6 C2 | x8 | x8 | x8 | D6 |] %26
V:3
 [D,A,]2 | [D,D]2 [D,D]2 [D,D]2 [D,A,]2 | G,2 G,2 (B,C) [G,D]2 | [D,D]2 [D,D]2 [D,D]2 [A,,A,]2 | %4
 [A,,G,]6 [D,A,]2 | [D,D]2 [D,D]2 [D,D]2 [D,A,]2 | G,2 [G,A,]2 [G,B,]2 [G,D]2 | %7
 [A,D]2 A,2 [A,,A,]2 [A,,G,]2 | [D,F,]6 [D,A,]2 | [A,,A,]2 [A,,A,]2 [A,,A,]2 [A,,A,]2 | %10
 [D,A,]2 [D,D]2 [D,D]2 [D,D]2 | [G,D]2 [G,B,]2 [E,E]2 [E,D]2 | [A,C]6 [D,D]2 | %13
 [D,D]2 [D,D]2 [D,D]2 [D,D]2 | [G,D]2 [G,D]2 [G,D]2 [G,D]2 | [A,D]2 A,2 [A,,A,]2 [A,,A,]2 | %16
 [D,F,]6 || [F,A,]2 | [A,,A,]2 [A,,A,]2 [A,,A,]2 [A,,A,]2 | [D,A,]2 [D,D]2 [D,D]2 [D,D]2 | %20
 [D,D]2 [D,D]2 [D,A,]2 [B,,^G,]2 | [A,,A,]6 [A,,A,]2 | [D,A,]2 [D,A,]2 [D,D]2 [D,D]2 | %23
 [G,D]2 [G,B,]2 [D,D]2 [G,D]2 | [F,D]2 [D,A,]2 A,2 [A,,G,]2 | [D,F,]6 |] %26
V:4
 x2 | x8 | G,2 G,2 G,2 x2 | x8 | x8 | x8 | G,2 x6 | x2 A,2 x4 | x8 | x8 | x8 | x8 | x8 | x8 | x8 | %15
 x2 A,2 x4 | x6 || x2 | x8 | x8 | x8 | x8 | x8 | x8 | x4 A,2 x2 | x6 |] %26

